src/components/Footer/images/logo-8.svg

<svg xmlns="http://www.w3.org/2000/svg" width="470" height="262" fill="none" viewBox="0 0 470 262"><g fill="#fff" clip-path="url(#a)"><path d="M345.886 151.944c-.696 0-1.176-.483-1.176-1.178V116.27h-11.719c-.696 0-1.177-.48-1.177-1.176v-4.758c0-.697.481-1.179 1.177-1.179h31.193c.696 0 1.175.483 1.175 1.179v4.758c0 .695-.479 1.176-1.175 1.176h-11.718v34.496c0 .695-.482 1.178-1.176 1.178zm-89.765-17.223-6.152-17.647-6.206 17.647zm13.643 15.829c.269.697-.16 1.394-.909 1.394h-5.563c-.803 0-1.286-.374-1.554-1.126l-3.155-9.089h-17.28l-3.16 9.089c-.266.753-.749 1.126-1.55 1.126h-5.242c-.696 0-1.178-.697-.911-1.394l14.499-40.321c.268-.751.75-1.07 1.551-1.07h7.169c.803 0 1.338.319 1.606 1.07zm41.559-4.383c3.422 0 5.724-1.656 7.597-4.492l-8.666-9.306c-3.318 1.873-5.459 3.742-5.459 7.487 0 3.691 2.995 6.311 6.528 6.311m2.407-31.341c-2.781 0-4.386 1.767-4.386 4.119 0 1.819.961 3.423 3.155 5.777 3.799-2.194 5.404-3.531 5.404-5.883 0-2.195-1.39-4.013-4.173-4.013m23.703 35.62c.695.749.268 1.498-.591 1.498h-6.794c-.909 0-1.391-.215-1.979-.911l-4.066-4.491c-2.728 3.637-6.53 6.364-12.842 6.364-7.811 0-13.965-4.706-13.965-12.78 0-6.206 3.319-9.523 8.349-12.303-2.463-2.834-3.585-5.83-3.585-8.449 0-6.633 4.654-11.179 11.662-11.179 7.169 0 11.557 4.227 11.557 10.483 0 5.348-3.851 8.341-7.918 10.588l5.993 6.474 3.37-5.885c.427-.695.909-.963 1.764-.963h5.189c.857 0 1.339.59.805 1.499l-5.993 10.266zm-53.393 1.498c.695 0 1.179-.483 1.179-1.178V116.27h11.715c.696 0 1.177-.48 1.177-1.176v-4.758c0-.697-.481-1.179-1.177-1.179h-31.192c-.697 0-1.177.483-1.177 1.179v4.758c0 .695.48 1.176 1.177 1.176h11.715v34.496c0 .695.483 1.178 1.178 1.178zM125.7 172.751c9.074 7.024 20.462 11.244 32.819 11.244 13.522 0 25.849-5.02 35.257-13.261.114-.101.057-.167-.055-.101-4.222 2.82-16.254 8.974-35.202 8.974-16.466 0-26.872-3.674-32.749-6.954-.112-.055-.154.029-.07.098m36.452 2.735c13.17 0 27.642-3.59 36.298-10.697 2.368-1.936 4.625-4.514 6.645-7.977 1.164-1.993 2.301-4.36 3.228-6.688.041-.113-.029-.168-.114-.041-8.05 11.846-31.358 19.234-55.426 19.234-17.012 0-35.316-5.44-42.482-15.828-.071-.096-.141-.055-.098.056 6.676 14.189 26.929 21.941 51.949 21.941m-14.39-23.54c-27.391 0-40.307-12.757-42.65-21.463-.029-.126-.112-.098-.112.015 0 2.931.294 6.713.798 9.223.241 1.222 1.236 3.14 2.694 4.669 6.632 6.913 23.169 16.601 51.807 16.601 39.018 0 47.94-12.997 49.761-17.272 1.303-3.056 1.978-8.581 1.978-13.221 0-1.123-.028-2.02-.071-2.9 0-.143-.082-.155-.111-.016-1.95 10.459-35.286 24.364-64.094 24.364m-37.602-44.399c-1.57 3.115-3.31 8.37-3.827 11.09-.227 1.165-.13 1.725.279 2.595 3.283 6.965 19.889 18.11 58.625 18.11 23.632 0 41.989-5.805 44.963-16.4.548-1.95.577-4.009-.126-6.784-.786-3.101-2.258-6.716-3.504-9.255-.042-.083-.114-.071-.099.027.462 13.896-38.289 22.852-57.841 22.852-21.178 0-38.847-8.438-38.847-19.093 0-1.024.212-2.048.476-3.113.027-.098-.057-.114-.099-.029m83.702-17.06c.225.352.337.728.337 1.234 0 5.944-18.192 16.459-47.151 16.459-21.278 0-25.262-7.893-25.262-12.913 0-1.795.689-3.63 2.204-5.495.083-.111.013-.154-.083-.072a53.6 53.6 0 0 0-7.532 7.825c-1.065 1.345-1.726 2.537-1.726 3.252 0 10.403 26.086 17.945 50.476 17.945 25.989 0 37.587-8.484 37.587-15.939 0-2.665-1.037-4.22-3.691-7.236-1.722-1.962-3.351-3.56-5.076-5.132-.083-.069-.141-.013-.083.071m-7.967-5.943C177.874 79.736 168.56 77 158.519 77c-10.111 0-19.706 2.83-27.755 7.765-2.414 1.486-3.773 2.677-3.773 4.208 0 4.512 10.545 9.364 29.255 9.364 18.515 0 32.876-5.314 32.876-10.43 0-1.22-1.068-2.075-3.227-3.365"/></g><defs><clipPath id="a"><path fill="#fff" d="M105 77h260.359v107H105z"/></clipPath></defs></svg>

<svg width="470" height="262" viewBox="0 0 470 262" fill="none" xmlns="http://www.w3.org/2000/svg">
<g clip-path="url(#clip0_1_344)">
<path d="M345.886 151.944C345.19 151.944 344.71 151.461 344.71 150.766V116.27H332.991C332.295 116.27 331.814 115.79 331.814 115.094V110.336C331.814 109.639 332.295 109.157 332.991 109.157H364.184C364.88 109.157 365.359 109.64 365.359 110.336V115.094C365.359 115.789 364.88 116.27 364.184 116.27H352.466V150.766C352.466 151.461 351.984 151.944 351.29 151.944H345.886ZM256.121 134.721L249.969 117.074L243.763 134.721H256.121ZM269.764 150.55C270.033 151.247 269.604 151.944 268.855 151.944H263.292C262.489 151.944 262.006 151.57 261.738 150.818L258.583 141.729H241.303L238.143 150.818C237.877 151.571 237.394 151.944 236.593 151.944H231.351C230.655 151.944 230.173 151.247 230.44 150.55L244.939 110.229C245.207 109.478 245.689 109.159 246.49 109.159H253.659C254.462 109.159 254.997 109.478 255.265 110.229L269.764 150.55ZM311.323 146.167C314.745 146.167 317.047 144.511 318.92 141.675L310.254 132.369C306.936 134.242 304.795 136.111 304.795 139.856C304.795 143.547 307.79 146.167 311.323 146.167ZM313.73 114.826C310.949 114.826 309.344 116.593 309.344 118.945C309.344 120.764 310.305 122.368 312.499 124.722C316.298 122.528 317.903 121.191 317.903 118.839C317.903 116.644 316.513 114.826 313.73 114.826ZM337.433 150.446C338.128 151.195 337.701 151.944 336.842 151.944H330.048C329.139 151.944 328.657 151.729 328.069 151.033L324.003 146.542C321.275 150.179 317.473 152.906 311.161 152.906C303.35 152.906 297.196 148.2 297.196 140.126C297.196 133.92 300.515 130.603 305.545 127.823C303.082 124.989 301.96 121.993 301.96 119.374C301.96 112.741 306.614 108.195 313.622 108.195C320.791 108.195 325.179 112.422 325.179 118.678C325.179 124.026 321.328 127.019 317.261 129.266L323.254 135.74L326.624 129.855C327.051 129.16 327.533 128.892 328.388 128.892H333.577C334.434 128.892 334.916 129.482 334.382 130.391L328.389 140.657L337.433 150.446ZM284.04 151.944C284.735 151.944 285.219 151.461 285.219 150.766V116.27H296.934C297.63 116.27 298.111 115.79 298.111 115.094V110.336C298.111 109.639 297.63 109.157 296.934 109.157H265.742C265.045 109.157 264.565 109.64 264.565 110.336V115.094C264.565 115.789 265.045 116.27 265.742 116.27H277.457V150.766C277.457 151.461 277.94 151.944 278.635 151.944H284.04Z" fill="white"/>
<path d="M125.7 172.751C134.774 179.775 146.162 183.995 158.519 183.995C172.041 183.995 184.368 178.975 193.776 170.734C193.89 170.633 193.833 170.567 193.721 170.633C189.499 173.453 177.467 179.607 158.519 179.607C142.053 179.607 131.647 175.933 125.77 172.653C125.658 172.598 125.616 172.682 125.7 172.751ZM162.152 175.486C175.322 175.486 189.794 171.896 198.45 164.789C200.818 162.853 203.075 160.275 205.095 156.812C206.259 154.819 207.396 152.452 208.323 150.124C208.364 150.011 208.294 149.956 208.209 150.083C200.159 161.929 176.851 169.317 152.783 169.317C135.771 169.317 117.467 163.877 110.301 153.489C110.23 153.393 110.16 153.434 110.203 153.545C116.879 167.734 137.132 175.486 162.152 175.486ZM147.762 151.946C120.371 151.946 107.455 139.189 105.112 130.483C105.083 130.357 105 130.385 105 130.498C105 133.429 105.294 137.211 105.798 139.721C106.039 140.943 107.034 142.861 108.492 144.39C115.124 151.303 131.661 160.991 160.299 160.991C199.317 160.991 208.239 147.994 210.06 143.719C211.363 140.663 212.038 135.138 212.038 130.498C212.038 129.375 212.01 128.478 211.967 127.598C211.967 127.455 211.885 127.443 211.856 127.582C209.906 138.041 176.57 151.946 147.762 151.946ZM110.16 107.547C108.59 110.662 106.85 115.917 106.333 118.637C106.106 119.802 106.203 120.362 106.612 121.232C109.895 128.197 126.501 139.342 165.237 139.342C188.869 139.342 207.226 133.537 210.2 122.942C210.748 120.992 210.777 118.933 210.074 116.158C209.288 113.057 207.816 109.442 206.57 106.903C206.528 106.82 206.456 106.832 206.471 106.93C206.933 120.826 168.182 129.782 148.63 129.782C127.452 129.782 109.783 121.344 109.783 110.689C109.783 109.665 109.995 108.641 110.259 107.576C110.286 107.478 110.202 107.462 110.16 107.547ZM193.862 90.4862C194.087 90.8387 194.199 91.2148 194.199 91.721C194.199 97.665 176.007 108.18 147.048 108.18C125.77 108.18 121.786 100.287 121.786 95.2667C121.786 93.4723 122.475 91.6362 123.99 89.7715C124.073 89.6606 124.003 89.6179 123.907 89.7004C121.143 92.043 118.603 94.679 116.375 97.5245C115.31 98.8702 114.649 100.062 114.649 100.777C114.649 111.18 140.735 118.722 165.125 118.722C191.114 118.722 202.712 110.238 202.712 102.783C202.712 100.118 201.675 98.5625 199.021 95.5468C197.299 93.585 195.67 91.9876 193.945 90.4152C193.862 90.3464 193.804 90.4024 193.862 90.4862ZM185.895 84.5435C177.874 79.736 168.56 77.0009 158.519 77.0009C148.408 77.0009 138.813 79.8315 130.764 84.7663C128.35 86.2523 126.991 87.4432 126.991 88.9739C126.991 93.4863 137.536 98.3381 156.246 98.3381C174.761 98.3381 189.122 93.0238 189.122 87.9083C189.122 86.6873 188.054 85.833 185.895 84.5435Z" fill="white"/>
</g>
<defs>
<clipPath id="clip0_1_344">
<rect width="260.359" height="107" fill="white" transform="translate(105 77)"/>
</clipPath>
</defs>
</svg>
